public/svg/flaskIcon.svg

<svg width="56" height="56" viewBox="0 0 56 56" fill="none" xmlns="http://www.w3.org/2000/svg">
<path d="M37.3338 9.3335L44.3338 16.3335L15.5171 45.1502C14.5889 46.0784 13.3299 46.5999 12.0171 46.5999C10.7044 46.5999 9.44539 46.0784 8.51713 45.1502C7.58887 44.2219 7.06738 42.9629 7.06738 41.6502C7.06738 40.3374 7.58887 39.0784 8.51713 38.1502L37.3338 9.3335" stroke="#1B5BF7" stroke-width="3.5" stroke-linecap="round" stroke-linejoin="round"/>
<path d="M23.333 23.3335H37.333" stroke="#1B5BF7" stroke-width="3.5" stroke-linecap="round" stroke-linejoin="round"/>
<path d="M44.3337 35L47.8337 38.7333C48.4277 39.4069 48.8147 40.2376 48.9484 41.1257C49.082 42.0137 48.9565 42.9215 48.587 43.7401C48.2175 44.5586 47.6197 45.2532 46.8652 45.7404C46.1108 46.2276 45.2317 46.4867 44.3337 46.4867C43.4356 46.4867 42.5566 46.2276 41.8021 45.7404C41.0476 45.2532 40.4498 44.5586 40.0803 43.7401C39.7108 42.9215 39.5853 42.0137 39.7189 41.1257C39.8526 40.2376 40.2396 39.4069 40.8337 38.7333L44.3337 35" stroke="#1B5BF7" stroke-width="3.5" stroke-linecap="round" stroke-linejoin="round"/>
</svg>

<svg xmlns="http://www.w3.org/2000/svg" width="56" height="56" fill="none" stroke="#1b5bf7" stroke-width="3.5" stroke-linecap="round" stroke-linejoin="round" xmlns:v="https://vecta.io/nano"><path d="M37.334 9.334l7 7L15.517 45.15a4.95 4.95 0 0 1-7 0 4.95 4.95 0 0 1 0-7L37.334 9.334"/><path d="M23.333 23.334h14M44.334 35l3.5 3.733a4.67 4.67 0 0 1 1.115 2.392c.134.888.008 1.796-.361 2.614a4.66 4.66 0 0 1-1.722 2 4.67 4.67 0 0 1-5.064 0 4.67 4.67 0 0 1-1.722-2c-.37-.818-.495-1.726-.361-2.614s.521-1.719 1.115-2.392l3.5-3.733"/></svg>
